X:16
T: Kocsmárosné
O: Resznek (Zala)
Q: "Tempo guisto" 1/4=108
M:4/4
L:1/4
K:C
D<D d<d | c>d c<A | G<A D z | 
D<D d<d | c>d c<A | G<A D z | 
c>A F<G | A C F G | A C F z | 
A<A d d | F<F G>F | E<D D |

